**harm	**harte	**timestamp	**phrase	**leadinstrument	**kern
*M4/4	*M4/4	*	*	*	*
*A:	*A:	*	*	*	*A:
1r;	N	0	.	r	1r;
=1	=1	=1	=1	=1	=1
*>A_intro	*>A_intro	*>A_intro	*>A_intro	*>A_intro	*>A_intro
1r	N	0.395	newline	drums	1r
=2	=2	=2	=2	=2	=2
1I	A:maj	2.083	newline	drums	1A 1cc# 1ee
=3	=3	=3	=3	=3	=3
1I	A:maj	3.652	.	drums	1A 1cc# 1ee
=4	=4	=4	=4	=4	=4
1V	E:sus4(9)	5.221	.	drums	1E 1g# 1b
=5	=5	=5	=5	=5	=5
1V	E:sus4(9)	6.791	.	drums	1E 1g# 1b
=6	=6	=6	=6	=6	=6
1I	A:maj	8.36	newline	horns	1A 1cc# 1ee
=7	=7	=7	=7	=7	=7
1I	A:maj	9.915	.	horns	1A 1cc# 1ee
=8	=8	=8	=8	=8	=8
1V	E:sus4(9)	11.47	.	horns	1E 1g# 1b
=9	=9	=9	=9	=9	=9
1V	E:sus4(9)	13.025	.	horns	1E 1g# 1b
=10	=10	=10	=10	=10	=10
*>A_verse	*>A_verse	*>A_verse	*>A_verse	*>A_verse	*>A_verse
1I	A:maj	14.58	newline	voice	1A 1cc# 1ee
=11	=11	=11	=11	=11	=11
1I	A:maj	16.144	.	voice	1A 1cc# 1ee
=12	=12	=12	=12	=12	=12
1V	E:sus4(9)	17.707	.	voice	1E 1g# 1b
=13	=13	=13	=13	=13	=13
1V	E:sus4(9)	19.271	.	voice	1E 1g# 1b
=14	=14	=14	=14	=14	=14
1V	E:sus4(9)	20.835	newline	voice	1E 1g# 1b
=15	=15	=15	=15	=15	=15
1V	E:sus4(9)	22.397	.	voice	1E 1g# 1b
=16	=16	=16	=16	=16	=16
1iii7	C#:min7	23.959	.	voice	1C# 1e 1g# 1b
=17	=17	=17	=17	=17	=17
1VI7	F#:9	25.521	.	voice	1F# 1a# 1cc# 1ee
=18	=18	=18	=18	=18	=18
1ii7	B:min7	27.083	.	voice	1B 1dd 1ff# 1aa
=19	=19	=19	=19	=19	=19
1ii7	B:min7	28.645	.	voice	1B 1dd 1ff# 1aa
=20	=20	=20	=20	=20	=20
1I	A:maj	30.207	newline	voice	1A 1cc# 1ee
=21	=21	=21	=21	=21	=21
1I	A:maj	31.786	.	voice	1A 1cc# 1ee
=22	=22	=22	=22	=22	=22
1V	E:sus4(9)	33.366	.	voice	1E 1g# 1b
=23	=23	=23	=23	=23	=23
1V	E:sus4(9)	34.946	.	voice	1E 1g# 1b
=24	=24	=24	=24	=24	=24
1V	E:sus4(9)	36.526	newline	voice	1E 1g# 1b
=25	=25	=25	=25	=25	=25
1V	E:sus4(9)	38.066	.	voice	1E 1g# 1b
=26	=26	=26	=26	=26	=26
1iii7	C#:min7	39.606	.	voice	1C# 1e 1g# 1b
=27	=27	=27	=27	=27	=27
1VI7	F#:9	41.146	.	voice	1F# 1a# 1cc# 1ee
=28	=28	=28	=28	=28	=28
1ii7	B:min7	42.686	.	voice	1B 1dd 1ff# 1aa
=29	=29	=29	=29	=29	=29
1ii7	B:min7	44.226	.	voice	1B 1dd 1ff# 1aa
=30	=30	=30	=30	=30	=30
*>B_transition	*>B_transition	*>B_transition	*>B_transition	*>B_transition	*>B_transition
1-VI7	F:maj7	45.767	newline	horns	1F 1a 1cc 1ee
=31	=31	=31	=31	=31	=31
1-VI7	F:maj7	47.346	.	horns	1F 1a 1cc 1ee
=32	=32	=32	=32	=32	=32
1-III7	C:maj7	48.925	.	horns	1C 1e 1g 1b
=33	=33	=33	=33	=33	=33
1-III7	C:maj7	50.504	.	horns	1C 1e 1g 1b
=34	=34	=34	=34	=34	=34
*>C_chorus	*>C_chorus	*>C_chorus	*>C_chorus	*>C_chorus	*>C_chorus
1-VI7	F:maj7	52.083	newline	voice	1F 1a 1cc 1ee
=35	=35	=35	=35	=35	=35
1-VI7	F:maj7	53.634	.	voice	1F 1a 1cc 1ee
=36	=36	=36	=36	=36	=36
1-III7	C:maj7	55.185	.	voice	1C 1e 1g 1b
=37	=37	=37	=37	=37	=37
1-III7	C:maj7	56.737	.	voice	1C 1e 1g 1b
=38	=38	=38	=38	=38	=38
1ii7	B:min7	58.288	newline	voice	1B 1dd 1ff# 1aa
=39	=39	=39	=39	=39	=39
1V7	E:7	59.848	.	voice	1E 1g# 1b 1dd
=40	=40	=40	=40	=40	=40
1I	A:maj	61.408	.	voice	1A 1cc# 1ee
=41	=41	=41	=41	=41	=41
1V7	E:7	62.968	.	voice	1E 1g# 1b 1dd
=42	=42	=42	=42	=42	=42
*>A_interlude	*>A_interlude	*>A_interlude	*>A_interlude	*>A_interlude	*>A_interlude
1I	A:maj	64.528	newline	steel drum	1A 1cc# 1ee
=43	=43	=43	=43	=43	=43
1I	A:maj	66.091	.	steel drum	1A 1cc# 1ee
=44	=44	=44	=44	=44	=44
1V	E:sus4	67.655	.	steel drum	1E 1g# 1b
=45	=45	=45	=45	=45	=45
1V	E:sus4	69.219	.	steel drum	1E 1g# 1b
=46	=46	=46	=46	=46	=46
1V	E:sus4	70.782	newline	steel drum	1E 1g# 1b
=47	=47	=47	=47	=47	=47
1V	E:sus4	72.338	.	steel drum	1E 1g# 1b
=48	=48	=48	=48	=48	=48
1I	A:maj	73.894	.	steel drum	1A 1cc# 1ee
=49	=49	=49	=49	=49	=49
1I	A:maj	75.449	.	steel drum	1A 1cc# 1ee
=50	=50	=50	=50	=50	=50
1I	A:maj	77.005	newline	steel drum	1A 1cc# 1ee
=51	=51	=51	=51	=51	=51
1I	A:maj	78.533	.	steel drum	1A 1cc# 1ee
=52	=52	=52	=52	=52	=52
1V	E:sus4	80.061	.	steel drum	1E 1g# 1b
=53	=53	=53	=53	=53	=53
1V	E:sus4	81.588	.	steel drum	1E 1g# 1b
=54	=54	=54	=54	=54	=54
1V	E:sus4	83.116	newline	steel drum	1E 1g# 1b
=55	=55	=55	=55	=55	=55
1V	E:sus4	84.658	.	steel drum	1E 1g# 1b
=56	=56	=56	=56	=56	=56
1I	A:maj	86.201	.	steel drum	1A 1cc# 1ee
=57	=57	=57	=57	=57	=57
1V7	E:7	87.743	.	steel drum	1E 1g# 1b 1dd
=58	=58	=58	=58	=58	=58
*>A_verse	*>A_verse	*>A_verse	*>A_verse	*>A_verse	*>A_verse
1I	A:maj	89.286	newline	voice	1A 1cc# 1ee
=59	=59	=59	=59	=59	=59
1I	A:maj	90.827	.	voice	1A 1cc# 1ee
=60	=60	=60	=60	=60	=60
1V	E:sus4(9)	92.369	.	voice	1E 1g# 1b
=61	=61	=61	=61	=61	=61
1V	E:sus4(9)	93.911	.	voice	1E 1g# 1b
=62	=62	=62	=62	=62	=62
1V	E:sus4(9)	95.452	newline	voice	1E 1g# 1b
=63	=63	=63	=63	=63	=63
1V	E:sus4(9)	97.007	.	voice	1E 1g# 1b
=64	=64	=64	=64	=64	=64
1iii7	C#:min7	98.563	.	voice	1C# 1e 1g# 1b
=65	=65	=65	=65	=65	=65
1VI7	F#:9	100.118	.	voice	1F# 1a# 1cc# 1ee
=66	=66	=66	=66	=66	=66
1ii7	B:min7	101.673	.	voice	1B 1dd 1ff# 1aa
=67	=67	=67	=67	=67	=67
1ii7	B:min7	103.229	.	voice	1B 1dd 1ff# 1aa
=68	=68	=68	=68	=68	=68
1I	A:maj	104.784	newline	voice	1A 1cc# 1ee
=69	=69	=69	=69	=69	=69
1I	A:maj	106.316	.	voice	1A 1cc# 1ee
=70	=70	=70	=70	=70	=70
1V	E:sus4(9)	107.848	.	voice	1E 1g# 1b
=71	=71	=71	=71	=71	=71
1V	E:sus4(9)	109.38	.	voice	1E 1g# 1b
=72	=72	=72	=72	=72	=72
1V	E:sus4(9)	110.912	newline	voice	1E 1g# 1b
=73	=73	=73	=73	=73	=73
1V	E:sus4(9)	112.457	.	voice	1E 1g# 1b
=74	=74	=74	=74	=74	=74
1iii7	C#:min7	114.003	.	voice	1C# 1e 1g# 1b
=75	=75	=75	=75	=75	=75
1VI7	F#:9	115.549	.	voice	1F# 1a# 1cc# 1ee
=76	=76	=76	=76	=76	=76
1ii7	B:min7	117.094	.	voice	1B 1dd 1ff# 1aa
=77	=77	=77	=77	=77	=77
1ii7	B:min7	118.64	.	voice	1B 1dd 1ff# 1aa
=78	=78	=78	=78	=78	=78
*>B_transition	*>B_transition	*>B_transition	*>B_transition	*>B_transition	*>B_transition
1-VI7	F:maj7	120.186	newline	horns	1F 1a 1cc 1ee
=79	=79	=79	=79	=79	=79
1-VI7	F:maj7	121.768	.	horns	1F 1a 1cc 1ee
=80	=80	=80	=80	=80	=80
1-III7	C:maj7	123.351	.	horns	1C 1e 1g 1b
=81	=81	=81	=81	=81	=81
1-III7	C:maj7	124.933	.	horns	1C 1e 1g 1b
=82	=82	=82	=82	=82	=82
*>C_chorus	*>C_chorus	*>C_chorus	*>C_chorus	*>C_chorus	*>C_chorus
1-VI7	F:maj7	126.515	newline	voice	1F 1a 1cc 1ee
=83	=83	=83	=83	=83	=83
1-VI7	F:maj7	128.036	.	voice	1F 1a 1cc 1ee
=84	=84	=84	=84	=84	=84
1-III7	C:maj7	129.557	.	voice	1C 1e 1g 1b
=85	=85	=85	=85	=85	=85
1-III7	C:maj7	131.078	.	voice	1C 1e 1g 1b
=86	=86	=86	=86	=86	=86
1ii7	B:min7	132.598	newline	voice	1B 1dd 1ff# 1aa
=87	=87	=87	=87	=87	=87
1V7	E:7	134.144	.	voice	1E 1g# 1b 1dd
=88	=88	=88	=88	=88	=88
1I	A:maj	135.69	.	voice	1A 1cc# 1ee
=89	=89	=89	=89	=89	=89
1V7	E:7	137.236	.	voice	1E 1g# 1b 1dd
=90	=90	=90	=90	=90	=90
*>A_outro	*>A_outro	*>A_outro	*>A_outro	*>A_outro	*>A_outro
1I	A:maj	138.782	newline	voice	1A 1cc# 1ee
=91	=91	=91	=91	=91	=91
1I	A:maj	140.308	.	voice	1A 1cc# 1ee
=92	=92	=92	=92	=92	=92
1V	E:sus4	141.835	.	voice	1E 1g# 1b
=93	=93	=93	=93	=93	=93
1V	E:sus4	143.361	.	voice	1E 1g# 1b
=94	=94	=94	=94	=94	=94
1I	A:maj	144.887	newline	voice	1A 1cc# 1ee
=95	=95	=95	=95	=95	=95
1I	A:maj	146.445	.	voice	1A 1cc# 1ee
=96	=96	=96	=96	=96	=96
1V	E:maj	148.003	.	voice	1E 1g# 1b
=97	=97	=97	=97	=97	=97
1V	E:maj	149.562	.	voice	1E 1g# 1b
=98	=98	=98	=98	=98	=98
1I	A:maj	151.12	newline	voice	1A 1cc# 1ee
=99	=99	=99	=99	=99	=99
1I	A:maj	152.665	.	voice	1A 1cc# 1ee
=100	=100	=100	=100	=100	=100
1V	E:maj	154.21	.	voice	1E 1g# 1b
=101	=101	=101	=101	=101	=101
1V	E:maj	155.754	.	voice	1E 1g# 1b
=102	=102	=102	=102	=102	=102
1I	A:maj	157.299	newline	voice	1A 1cc# 1ee
=103	=103	=103	=103	=103	=103
1I	A:maj	158.822	.	voice	1A 1cc# 1ee
=104	=104	=104	=104	=104	=104
1V	E:maj	160.345	.	voice	1E 1g# 1b
=105	=105	=105	=105	=105	=105
1V	E:maj	161.868	.	voice	1E 1g# 1b
=106	=106	=106	=106	=106	=106
1I	A:maj	163.391	newline	fadeout	1A 1cc# 1ee
=107	=107	=107	=107	=107	=107
1I	A:maj	164.931	.	fadeout	1A 1cc# 1ee
=108	=108	=108	=108	=108	=108
1V	E:maj	166.471	.	fadeout	1E 1g# 1b
=109	=109	=109	=109	=109	=109
1V	E:maj	168.012	.	fadeout	1E 1g# 1b
=110	=110	=110	=110	=110	=110
1I	A:maj	169.552	newline	fadeout	1A 1cc# 1ee
=111	=111	=111	=111	=111	=111
1I	A:maj	171.065	.	fadeout	1A 1cc# 1ee
=112	=112	=112	=112	=112	=112
1V	E:maj	172.578	.	fadeout	1E 1g# 1b
=113	=113	=113	=113	=113	=113
1V	E:maj	174.091	.	fadeout	1E 1g# 1b
=114	=114	=114	=114	=114	=114
1I	A:maj	175.603	newline	voice	1A 1cc# 1ee
=115	=115	=115	=115	=115	=115
1I	A:maj	176.426	.	voice	1A 1cc# 1ee
=116	=116	=116	=116	=116	=116
1V	E:maj	177.249	.	voice	1E 1g# 1b
=117	=117	=117	=117	=117	=117
1V	E:maj	178.072	.	voice	1E 1g# 1b
1r;	N	178.894	.	r	1r;
1r;	N	181.551	.	r	1r;
*-	*-	*-	*-	*-	*-
!!!OTL: Another Rainy Day In New York City
!!!COC: Chicago
!!!BillboardChartDate: 1976/08/21
!!!BillboardPeak: 32
!!!BillboardWeeksOnChart: 9
!!!SampleTargetRank: 65
!!!SampleActualRank: 67
!!!SampleID#: 0208
!!!RDF**harmony: **recip + pitch class of root + harmonic quality
!!!RDF**harte: Chris Harte's syntax, used by MIREX
!!!RDF**phrase: newline = linebreak in original McGill transcription
!!!RDF**timestamp: McGill audio timestamp in seconds
!!!RDF**leadinstrument: original McGill primary instrumentation annotation
!!!RDT: 2017/01/12/
!!!ENC: Nathaniel Condit-Schultz
!!!EST: Awating manual error checking and editing.
